static/img/kroki/9096c66ebe3354071c17dc32ef9d19d8.svg

<?xml version="1.0" encoding="us-ascii" standalone="no"?><svg xmlns="http://www.w3.org/2000/svg" xmlns:xlink="http://www.w3.org/1999/xlink" contentStyleType="text/css" height="374px" preserveAspectRatio="none" style="width:322px;height:374px;" version="1.1" viewBox="0 0 322 374" width="322px" zoomAndPan="magnify"><defs/><g><!--class account--><g id="elem_account"><rect codeLine="23" fill="#3D176E" height="39.7891" id="account" rx="2.5" ry="2.5" style="stroke:#000D19;stroke-width:0.5;" width="107" x="205" y="167.79"/><ellipse cx="220" cy="187.6845" fill="#ADD1B2" rx="11" ry="11" style="stroke:#181818;stroke-width:1.0;"/><path d="M222.9688,193.3252 Q222.3906,193.622 221.75,193.7627 Q221.1094,193.9189 220.4063,193.9189 Q217.9063,193.9189 216.5781,192.2783 Q215.2656,190.622 215.2656,187.497 Q215.2656,184.372 216.5781,182.7158 Q217.9063,181.0595 220.4063,181.0595 Q221.1094,181.0595 221.75,181.2158 Q222.4063,181.372 222.9688,181.6689 L222.9688,184.3877 Q222.3438,183.8095 221.75,183.5439 Q221.1563,183.2627 220.5313,183.2627 Q219.1875,183.2627 218.5,184.3408 Q217.8125,185.4033 217.8125,187.497 Q217.8125,189.5908 218.5,190.6689 Q219.1875,191.7314 220.5313,191.7314 Q221.1563,191.7314 221.75,191.4658 Q222.3438,191.1845 222.9688,190.6064 L222.9688,193.3252 Z " fill="#000000"/><text fill="#D9B8FF" font-family="Helvetica" font-size="17" lengthAdjust="spacing" textLength="65" x="239" y="193.5698">account</text></g><!--class resource--><g id="elem_resource"><rect codeLine="26" fill="#3D176E" height="39.7891" id="resource" rx="2.5" ry="2.5" style="stroke:#000D19;stroke-width:0.5;" width="113" x="202" y="7"/><ellipse cx="217" cy="26.8945" fill="#ADD1B2" rx="11" ry="11" style="stroke:#181818;stroke-width:1.0;"/><path d="M219.9688,32.5352 Q219.3906,32.832 218.75,32.9727 Q218.1094,33.1289 217.4063,33.1289 Q214.9063,33.1289 213.5781,31.4883 Q212.2656,29.832 212.2656,26.707 Q212.2656,23.582 213.5781,21.9258 Q214.9063,20.2695 217.4063,20.2695 Q218.1094,20.2695 218.75,20.4258 Q219.4063,20.582 219.9688,20.8789 L219.9688,23.5977 Q219.3438,23.0195 218.75,22.7539 Q218.1563,22.4727 217.5313,22.4727 Q216.1875,22.4727 215.5,23.5508 Q214.8125,24.6133 214.8125,26.707 Q214.8125,28.8008 215.5,29.8789 Q216.1875,30.9414 217.5313,30.9414 Q218.1563,30.9414 218.75,30.6758 Q219.3438,30.3945 219.9688,29.8164 L219.9688,32.5352 Z " fill="#000000"/><text fill="#D9B8FF" font-family="Helvetica" font-size="17" lengthAdjust="spacing" textLength="71" x="236" y="32.7798">resource</text></g><!--class slack_resource--><g id="elem_slack_resource"><rect codeLine="29" fill="#3D176E" height="39.7891" id="slack_resource" rx="2.5" ry="2.5" style="stroke:#000D19;stroke-width:0.5;" width="163" x="7" y="167.79"/><ellipse cx="22" cy="187.6845" fill="#ADD1B2" rx="11" ry="11" style="stroke:#181818;stroke-width:1.0;"/><path d="M24.9688,193.3252 Q24.3906,193.622 23.75,193.7627 Q23.1094,193.9189 22.4063,193.9189 Q19.9063,193.9189 18.5781,192.2783 Q17.2656,190.622 17.2656,187.497 Q17.2656,184.372 18.5781,182.7158 Q19.9063,181.0595 22.4063,181.0595 Q23.1094,181.0595 23.75,181.2158 Q24.4063,181.372 24.9688,181.6689 L24.9688,184.3877 Q24.3438,183.8095 23.75,183.5439 Q23.1563,183.2627 22.5313,183.2627 Q21.1875,183.2627 20.5,184.3408 Q19.8125,185.4033 19.8125,187.497 Q19.8125,189.5908 20.5,190.6689 Q21.1875,191.7314 22.5313,191.7314 Q23.1563,191.7314 23.75,191.4658 Q24.3438,191.1845 24.9688,190.6064 L24.9688,193.3252 Z " fill="#000000"/><text fill="#D9B8FF" font-family="Helvetica" font-size="17" lengthAdjust="spacing" textLength="121" x="41" y="193.5698">slack_resource</text></g><!--class slack_team--><g id="elem_slack_team"><rect codeLine="32" fill="#3D176E" height="39.7891" id="slack_team" rx="2.5" ry="2.5" style="stroke:#000D19;stroke-width:0.5;" width="136" x="55.5" y="328.58"/><ellipse cx="70.5" cy="348.4745" fill="#ADD1B2" rx="11" ry="11" style="stroke:#181818;stroke-width:1.0;"/><path d="M73.4688,354.1152 Q72.8906,354.412 72.25,354.5527 Q71.6094,354.7089 70.9063,354.7089 Q68.4063,354.7089 67.0781,353.0683 Q65.7656,351.412 65.7656,348.287 Q65.7656,345.162 67.0781,343.5058 Q68.4063,341.8495 70.9063,341.8495 Q71.6094,341.8495 72.25,342.0058 Q72.9063,342.162 73.4688,342.4589 L73.4688,345.1777 Q72.8438,344.5995 72.25,344.3339 Q71.6563,344.0527 71.0313,344.0527 Q69.6875,344.0527 69,345.1308 Q68.3125,346.1933 68.3125,348.287 Q68.3125,350.3808 69,351.4589 Q69.6875,352.5214 71.0313,352.5214 Q71.6563,352.5214 72.25,352.2558 Q72.8438,351.9745 73.4688,351.3964 L73.4688,354.1152 Z " fill="#000000"/><text fill="#D9B8FF" font-family="Helvetica" font-size="17" lengthAdjust="spacing" textLength="94" x="89.5" y="354.3598">slack_team</text></g><!--reverse link resource to account--><g id="link_resource_account"><path codeLine="35" d="M258.5,65.05 C258.5,95.57 258.5,136.9 258.5,167.46 " fill="none" id="resource-backto-account" style="stroke:#FFAF37;stroke-width:2.0;"/><polygon fill="none" points="258.5,47.05,252.5,65.05,264.5,65.05,258.5,47.05" style="stroke:#FFAF37;stroke-width:2.0;"/></g><!--reverse link account to slack_team--><g id="link_account_slack_team"><path codeLine="36" d="M230.5602,221.5531 C204.6102,252.0731 165.83,297.69 139.84,328.25 " fill="none" id="account-backto-slack_team" style="stroke:#FFAF37;stroke-width:2.0;"/><polygon fill="none" points="242.22,207.84,225.9892,217.6665,235.1313,225.4397,242.22,207.84" style="stroke:#FFAF37;stroke-width:2.0;"/></g><!--reverse link slack_resource to slack_team--><g id="link_slack_resource_slack_team"><path codeLine="37" d="M96.5961,225.4177 C103.3261,255.9377 112.53,297.69 119.26,328.25 " fill="none" id="slack_resource-backto-slack_team" style="stroke:#FFAF37;stroke-width:2.0;"/><polygon fill="none" points="92.72,207.84,90.7368,226.7097,102.4553,224.1257,92.72,207.84" style="stroke:#FFAF37;stroke-width:2.0;"/></g><!--SRC=[XP3DReCm48JlF8Mbd2D1evOWzP8YLUqbgfhUAsElWnMmqNffbFwyUo4agGiXkSvydfbrhYKmA2lQiHBA3D05RgDDnP6NR85ejwajBBA9KbpDuhxvQ0rT1PQy1FO4nGUG5hnFlELQR0munsuywu6BpHfjRMGNJyYDQommv55fmPrR4A7EQW9lZ4ookL9ziXywcSaeleC1Pb427f0m36MKz96hLHVlFX4h_GaiyZzjQGa6CmSLU-hYofRmHWuEFVgZ6r-ubDgisQsdlNQRq03-qrSvbtRRqeeNpgzn10YMTXMaWwiWcKiLduMVn-10j5_7k12DH-mh27uE4eApDGhmDLSqCU_Z3a7JkbTFpFttT3ezvWV7daxzUnJqaWV-Bm00]--></g></svg>

<svg xmlns="http://www.w3.org/2000/svg" width="322" height="374" viewBox="0 0 322 374"><rect width="107" height="39.789" x="205" y="167.79" fill="#3D176E" rx="2.5" ry="2.5" style="stroke:#000d19;stroke-width:.5"/><circle cx="220" cy="187.685" r="11" fill="#ADD1B2" style="stroke:#181818;stroke-width:1"/><path d="M222.969 193.325q-.578.297-1.219.438-.64.156-1.344.156-2.5 0-3.828-1.64-1.312-1.657-1.312-4.782t1.312-4.781q1.328-1.656 3.828-1.656.703 0 1.344.156.656.156 1.219.453v2.719q-.625-.578-1.219-.844-.594-.281-1.219-.281-1.344 0-2.031 1.078-.687 1.062-.687 3.156t.687 3.172q.688 1.062 2.031 1.062.625 0 1.219-.265.594-.281 1.219-.86z"/><text x="239" y="193.57" fill="#D9B8FF" font-family="Helvetica" font-size="17" textLength="65">account</text><rect width="113" height="39.789" x="202" y="7" fill="#3D176E" rx="2.5" ry="2.5" style="stroke:#000d19;stroke-width:.5"/><circle cx="217" cy="26.895" r="11" fill="#ADD1B2" style="stroke:#181818;stroke-width:1"/><path d="M219.969 32.535q-.578.297-1.219.438-.64.156-1.344.156-2.5 0-3.828-1.64-1.312-1.657-1.312-4.782t1.312-4.781q1.328-1.656 3.828-1.656.703 0 1.344.156.656.156 1.219.453v2.719q-.625-.578-1.219-.844-.594-.281-1.219-.281-1.344 0-2.031 1.078-.687 1.062-.687 3.156t.687 3.172q.688 1.062 2.031 1.062.625 0 1.219-.265.594-.281 1.219-.86z"/><text x="236" y="32.78" fill="#D9B8FF" font-family="Helvetica" font-size="17" textLength="71">resource</text><rect width="163" height="39.789" x="7" y="167.79" fill="#3D176E" rx="2.5" ry="2.5" style="stroke:#000d19;stroke-width:.5"/><circle cx="22" cy="187.685" r="11" fill="#ADD1B2" style="stroke:#181818;stroke-width:1"/><path d="M24.969 193.325q-.578.297-1.219.438-.64.156-1.344.156-2.5 0-3.828-1.64-1.312-1.657-1.312-4.782t1.312-4.781q1.328-1.656 3.828-1.656.703 0 1.344.156.656.156 1.219.453v2.719q-.625-.578-1.219-.844-.594-.281-1.219-.281-1.343 0-2.031 1.078-.687 1.062-.687 3.156t.687 3.172q.688 1.062 2.031 1.062.625 0 1.219-.265.594-.281 1.219-.86z"/><text x="41" y="193.57" fill="#D9B8FF" font-family="Helvetica" font-size="17" textLength="121">slack_resource</text><rect width="136" height="39.789" x="55.5" y="328.58" fill="#3D176E" rx="2.5" ry="2.5" style="stroke:#000d19;stroke-width:.5"/><circle cx="70.5" cy="348.474" r="11" fill="#ADD1B2" style="stroke:#181818;stroke-width:1"/><path d="M73.469 354.115q-.578.297-1.219.438-.64.156-1.344.156-2.5 0-3.828-1.64-1.312-1.657-1.312-4.782t1.312-4.781q1.328-1.656 3.828-1.656.703 0 1.344.156.656.156 1.219.453v2.719q-.625-.579-1.219-.844-.594-.281-1.219-.281-1.344 0-2.031 1.078-.687 1.062-.687 3.156t.687 3.172q.688 1.062 2.031 1.062.625 0 1.219-.265.594-.281 1.219-.86z"/><text x="89.5" y="354.36" fill="#D9B8FF" font-family="Helvetica" font-size="17" textLength="94">slack_team</text><path fill="none" d="M258.5 65.05v102.41m0-120.41-6 18h12z" style="stroke:#ffaf37;stroke-width:2"/><g fill="none"><path d="M230.56 221.553c-25.95 30.52-64.73 76.137-90.72 106.697" style="stroke:#ffaf37;stroke-width:2"/><path d="m242.22 207.84-16.23 9.827 9.141 7.773z" style="stroke:#ffaf37;stroke-width:2"/></g><path fill="none" d="M96.596 225.418c6.73 30.52 15.934 72.272 22.664 102.832M92.72 207.84l-1.983 18.87 11.718-2.584z" style="stroke:#ffaf37;stroke-width:2"/></svg>
